X:1
T:Rau ma dor ochii ma dor
T:Rău mă dor ochii mă dor
L:1/8
M:4/4
K:C
V:1 treble+8 nm="Recorder" snm="Rec."
V:1
 z2 FG AA GF | (A2- A/G/A/G/ F3 G | A2) _BA GPF APG | F6 z2 | FE D4 z D | FG (G6 | (A2) _B2) BAGF | %7
w: Rău mă dor oc- chii mă|dor * * * * * *|* de du- re- rea frun- zi-|lor|şi mă duc şi|iar mă duc|* * Pâ- nă la iz-|
w: ||||şi mă fac şi|iar mă fac|* * Lemn de brad şi|
 APG F6 | z2 GA BB AG | (B2- B/A/B/A/ G3 A | B2) cB APG BPA | G6 z2 | G^F E4 z E | GA (A6 | %14
w: vor sub nuc|Rău mă dor oc- chii mă|dor * * * * * *|* de du- re- rea frun- zi-|lor|şi mă duc şi|iar mă duc|
w: lemn de fag|||||şi mă fac şi|iar mă fac|
 (B2) c2) cBAG | BPA G6 |] %16
w: * * Pâ- nă la iz-|vor sub nuc|
w: * * Lemn de brad şi|lemn de fag|

